X:76
T:Ned Coleman's
R:jig
M:6/8
L:1/8
K:G
D | G3 EDE | GAB d3 | ege dge | dBA GED |
G3 EDE | GAB d3 | ege dge |1 dBA G2 :|2 dBA G |:
(3B^cd | g3 edB | dBA GED | G3 EDE | GAB d3 |
g3 edB | dBA GED | G3 DGB |1 dBA G :|2 dBA G2 |]
